Numix-GalliumOS/64/mimetypes/text-x-emacs-lisp.svg

<?xml version="1.0" encoding="UTF-8" standalone="no"?>
<svg
   xmlns:dc="http://purl.org/dc/elements/1.1/"
   xmlns:cc="http://creativecommons.org/ns#"
   xmlns:rdf="http://www.w3.org/1999/02/22-rdf-syntax-ns#"
   xmlns:svg="http://www.w3.org/2000/svg"
   xmlns="http://www.w3.org/2000/svg"
   xmlns:sodipodi="http://sodipodi.sourceforge.net/DTD/sodipodi-0.dtd"
   xmlns:inkscape="http://www.inkscape.org/namespaces/inkscape"
   width="64px"
   height="64px"
   viewBox="0 0 64 64"
   version="1.1"
   id="svg2"
   inkscape:version="0.91 r13725"
   sodipodi:docname="text-x-emacs-lisp.svg">
  <metadata
     id="metadata29">
    <rdf:RDF>
      <cc:Work
         rdf:about="">
        <dc:format>image/svg+xml</dc:format>
        <dc:type
           rdf:resource="http://purl.org/dc/dcmitype/StillImage" />
        <dc:title />
      </cc:Work>
    </rdf:RDF>
  </metadata>
  <defs
     id="defs27" />
  <sodipodi:namedview
     pagecolor="#ffffff"
     bordercolor="#666666"
     borderopacity="1"
     objecttolerance="10"
     gridtolerance="10"
     guidetolerance="10"
     inkscape:pageopacity="0"
     inkscape:pageshadow="2"
     inkscape:window-width="1366"
     inkscape:window-height="717"
     id="namedview25"
     showgrid="false"
     inkscape:zoom="1"
     inkscape:cx="-46.461886"
     inkscape:cy="24.329689"
     inkscape:window-x="0"
     inkscape:window-y="26"
     inkscape:window-maximized="1"
     inkscape:current-layer="svg2" />
  <g
     id="surface1">
    <path
       style="stroke:none;fill-rule:nonzero;fill:#5555b5;fill-opacity:1"
       d="M 10.671875 0 C 9.296875 0 8 1.355469 8 2.789062 L 8 61.210938 C 8 62.566406 9.375 64 10.671875 64 L 53.328125 64 C 54.625 64 56 62.566406 56 61.210938 L 56 18 L 38 0 Z M 10.671875 0 "
       id="path5" />
    <path
       style=" stroke:none;fill-rule:nonzero;fill:rgb(0%,0%,0%);fill-opacity:0.196078;"
       d="M 42 18 L 56 32 L 56 18 Z M 42 18 "
       id="path7" />
    <path
       style=" stroke:none;fill-rule:nonzero;fill:rgb(100%,100%,100%);fill-opacity:0.392157;"
       d="M 38 0 L 55.984375 18 L 40.757812 18 C 39.410156 18 38 16.574219 38 15.226562 Z M 38 0 "
       id="path9" />
  </g>
  <path
     d="m 24.483748,50.1705 c 3.350588,0.789352 6.855756,0.748124 10.324412,0.8295 0,0 3.034276,-0.1022 4.698608,-0.39876 1.743208,-0.31172 2.724645,-0.660868 3.254705,-1.312296 0.0108,-0.15128 0.24392,-0.653652 -0.451812,-1.103248 -1.785861,-1.14418 -4.045657,-1.399464 -8.454977,-2.279804 -4.876176,-1.043388 -6.362452,-2.15022 -7.110736,-2.967928 -0.716624,-0.81474 0.0368,-2.588936 3.903348,-3.584248 1.953908,-0.546292 9.298276,-0.890648 9.298276,-0.890648 -2.166992,-1.592632 -6.227532,-4.439909 -7.055912,-5.043857 -0.730172,-0.53196 -1.89984,-1.347172 -2.049508,-2.106316 -0.19268,-0.737256 0.970244,-1.136648 1.588968,-1.2021 3.146052,-0.14984 5.741732,0.09104 8.633528,0.481976 1.742661,0.0228 3.065261,-0.93572 2.927493,-2.84184 -0.08396,-1.939592 -2.080316,-3.4271 -4.239301,-3.4189 -2.03188,0.0038 -7.020192,0.531756 -7.020192,0.531756 5.872108,0.993288 6.836564,1.266348 7.162808,1.951028 -1.629388,1.535996 -4.526652,0.677828 -7.232484,0.487208 -3.429844,-0.410084 -5.818948,-0.8117 -6.81212,0.5724 -0.644792,0.893916 0.16776,1.948892 0.491516,2.56232 1.969276,2.933 4.794572,4.462365 7.670172,6.221941 -5.352988,-1.258072 -9.550376,-0.295 -12.184888,1.198424 -3.017378,1.928752 -2.391982,4.97254 2.605964,7.667808 2.942608,1.588956 4.851616,2.274864 9.152072,2.768164 2.784168,0.345 3.19914,0.50886 3.186864,0.74064 -0.016,0.32272 -3.253612,0.556044 -4.145176,0.650384 -2.262076,0.23392 -8.115448,0.47824 -8.147984,0.47938"
     id="path53"
     inkscape:connector-curvature="0"
     style="fill:#ffffff;fill-opacity:1;fill-rule:evenodd;stroke:none"
     sodipodi:nodetypes="ccccccccccccccccccccccccccc" />
</svg>

<svg xmlns="http://www.w3.org/2000/svg" viewBox="0 0 64 64">
 <g>
  <path d="m 10.672 0 c -1.375 0 -2.672 1.355 -2.672 2.789 l 0 58.42 c 0 1.355 1.375 2.789 2.672 2.789 l 42.656 0 c 1.297 0 2.672 -1.434 2.672 -2.789 l 0 -43.21 l -18 -18 m -27.328 0" style="fill:#5555b5;fill-opacity:1;stroke:none;fill-rule:nonzero"/>
  <path d="m 42 18 l 14 14 l 0 -14 m -14 0" style="fill:#000;fill-opacity:0.196;stroke:none;fill-rule:nonzero"/>
  <path d="m 38 0 l 17.984 18 l -15.227 0 c -1.348 0 -2.758 -1.426 -2.758 -2.773 m 0 -15.227" style="fill:#fff;fill-opacity:0.392;stroke:none;fill-rule:nonzero"/>
 </g>
 <path d="m 24.484 50.17 c 3.351 0.789 6.856 0.748 10.324 0.83 0 0 3.034 -0.102 4.699 -0.399 1.743 -0.312 2.725 -0.661 3.255 -1.312 0.011 -0.151 0.244 -0.654 -0.452 -1.103 -1.786 -1.144 -4.046 -1.399 -8.455 -2.28 -4.876 -1.043 -6.362 -2.15 -7.111 -2.968 -0.717 -0.815 0.037 -2.589 3.903 -3.584 1.954 -0.546 9.298 -0.891 9.298 -0.891 -2.167 -1.593 -6.228 -4.44 -7.06 -5.04 -0.73 -0.532 -1.9 -1.347 -2.05 -2.106 -0.193 -0.737 0.97 -1.137 1.589 -1.202 3.146 -0.15 5.742 0.091 8.634 0.482 1.743 0.023 3.065 -0.936 2.927 -2.842 -0.084 -1.94 -2.08 -3.427 -4.239 -3.419 -2.032 0.004 -7.02 0.532 -7.02 0.532 5.872 0.993 6.837 1.266 7.163 1.951 -1.629 1.536 -4.527 0.678 -7.232 0.487 -3.43 -0.41 -5.819 -0.812 -6.812 0.572 -0.645 0.894 0.168 1.949 0.492 2.562 1.969 2.933 4.795 4.462 7.67 6.222 -5.353 -1.258 -9.55 -0.295 -12.185 1.198 -3.02 1.929 -2.392 4.973 2.606 7.668 2.943 1.589 4.852 2.275 9.152 2.768 2.784 0.345 3.199 0.509 3.187 0.741 -0.016 0.323 -3.254 0.556 -4.145 0.65 -2.262 0.234 -8.115 0.478 -8.148 0.479" style="fill:#fff;fill-opacity:1;stroke:none;fill-rule:evenodd"/>
</svg>
